X: 13056
T: Finn Harper's
R: jig
M: 6/8
K: Eminor
|:B2A AFD|EFE EDE|FAA BAF|ABd e2f|
dBB ABd|F2E EDE|FAA BAF|1 ABd EFA:|2 ABd E3||
|:e2B BAB|egf edB|d2f edB|BAF ABd|
~e3 BAB|egf edB|def edB|1 AFD E3:|2 AFD EFA||

